;FLAVOR:Marlin
;TIME:7891
;Filament used: 11.3913m
;Layer height: 0.4
;Generated with Cura_SteamEngine 3.6.0
M140 S60
M105
M190 S60
M104 S200
M105
M109 S200
M82 ;absolute extrusion mode
G21 ;metric values
G90 ;absolute positioning
M82 ;set extruder to absolute mode
M107 ;start with the fan off
G28 X0 Y0 ;move X/Y to min endstops
G28 Z0 ;move Z to min endstops
G1 Z15.0 F9000 ;move the platform down 15mm
G92 E0 ;zero the extruded length
G1 F200 E3 ;extrude 3mm of feed stock
G92 E0 ;zero the extruded length again
G1 F9000
;Put printing message on LCD screen
M117 Printing...
G92 E0
G1 F1500 E-6.5
;LAYER_COUNT:16
;LAYER:0
M107
G0 F3600 X32.823 Y38.549 Z0.3
;TYPE:SKIRT
G1 F1500 E0
G1 F1800 X33.422 Y38.034 E0.03941
G1 X34.07 Y37.583 E0.0788
G1 X34.761 Y37.199 E0.11824
G1 X35.486 Y36.887 E0.15762
G1 X36.239 Y36.65 E0.197
G1 X37.013 Y36.491 E0.23642
G1 X37.798 Y36.41 E0.27579
G1 X38.2 Y36.4 E0.29586
G1 X105.5 Y36.4 E3.65347
G1 X106.289 Y36.44 E3.69288
G1 X107.069 Y36.559 E3.73224
G1 X107.834 Y36.757 E3.77167
G1 X108.574 Y37.031 E3.81104
G1 X109.283 Y37.379 E3.85044
G1 X109.954 Y37.797 E3.88988
G1 X110.005 Y37.837 E3.89311
G1 X110.37 Y37.583 E3.9153
G1 X111.061 Y37.199 E3.95474
G1 X111.786 Y36.887 E3.99412
G1 X112.539 Y36.65 E4.0335
G1 X113.313 Y36.491 E4.07292
G1 X114.098 Y36.41 E4.11229
G1 X114.5 Y36.4 E4.13236
G1 X181.8 Y36.4 E7.48997
G1 X182.589 Y36.44 E7.52938
G1 X183.369 Y36.559 E7.56875
G1 X184.134 Y36.757 E7.60817
G1 X184.874 Y37.031 E7.64754
G1 X185.583 Y37.379 E7.68694
G1 X186.254 Y37.797 E7.72638
G1 X186.878 Y38.28 E7.76575
G1 X187.451 Y38.823 E7.80513
G1 X187.966 Y39.422 E7.84454
G1 X188.417 Y40.07 E7.88393
G1 X188.801 Y40.761 E7.92337
G1 X189.113 Y41.486 E7.96275
G1 X189.35 Y42.239 E8.00213
G1 X189.509 Y43.013 E8.04155
G1 X189.59 Y43.798 E8.08093
G1 X189.6 Y44.2 E8.10099
G1 X189.6 Y174.8 E14.61665
G1 X189.56 Y175.589 E14.65606
G1 X189.441 Y176.369 E14.69543
G1 X189.243 Y177.134 E14.73485
G1 X188.969 Y177.874 E14.77422
G1 X188.621 Y178.583 E14.81362
G1 X188.203 Y179.254 E14.85306
G1 X187.72 Y179.878 E14.89243
G1 X187.177 Y180.451 E14.93182
G1 X186.578 Y180.966 E14.97123
G1 X185.93 Y181.417 E15.01061
G1 X185.239 Y181.801 E15.05005
G1 X184.514 Y182.113 E15.08943
G1 X183.761 Y182.35 E15.12882
G1 X182.987 Y182.509 E15.16824
G1 X182.202 Y182.59 E15.20761
G1 X181.8 Y182.6 E15.22767
G1 X180.8 Y182.6 E15.27756
G1 X180.011 Y182.56 E15.31698
G1 X179.231 Y182.441 E15.35634
G1 X178.466 Y182.243 E15.39576
G1 X177.726 Y181.969 E15.43513
G1 X177.154 Y181.688 E15.46693
G1 X176.951 Y181.801 E15.47852
G1 X176.226 Y182.113 E15.5179
G1 X175.473 Y182.35 E15.55728
G1 X174.699 Y182.509 E15.5967
G1 X173.914 Y182.59 E15.63607
G1 X173.512 Y182.6 E15.65613
G1 X172.512 Y182.6 E15.70602
G1 X171.723 Y182.56 E15.74544
G1 X170.943 Y182.441 E15.7848
G1 X170.178 Y182.243 E15.82423
G1 X169.438 Y181.969 E15.8636
G1 X168.866 Y181.688 E15.89539
G1 X168.664 Y181.801 E15.90694
G1 X167.939 Y182.113 E15.94631
G1 X167.186 Y182.35 E15.9857
G1 X166.412 Y182.509 E16.02512
G1 X165.627 Y182.59 E16.06449
G1 X165.225 Y182.6 E16.08455
G1 X164.225 Y182.6 E16.13444
G1 X163.436 Y182.56 E16.17386
G1 X162.656 Y182.441 E16.21322
G1 X161.891 Y182.243 E16.25265
G1 X161.151 Y181.969 E16.29201
G1 X160.579 Y181.688 E16.32381
G1 X160.377 Y181.801 E16.33536
G1 X159.652 Y182.113 E16.37473
G1 X158.899 Y182.35 E16.41412
G1 X158.125 Y182.509 E16.45354
G1 X157.34 Y182.59 E16.49291
G1 X156.938 Y182.6 E16.51297
G1 X155.938 Y182.6 E16.56286
G1 X155.149 Y182.56 E16.60228
G1 X154.369 Y182.441 E16.64164
G1 X153.604 Y182.243 E16.68107
G1 X152.864 Y181.969 E16.72043
G1 X152.292 Y181.688 E16.75223
G1 X152.089 Y181.801 E16.76382
G1 X151.364 Y182.113 E16.8032
G1 X150.611 Y182.35 E16.84258
G1 X149.837 Y182.509 E16.882
G1 X149.052 Y182.59 E16.92138
G1 X148.65 Y182.6 E16.94144
G1 X147.65 Y182.6 E16.99133
G1 X146.861 Y182.56 E17.03074
G1 X146.081 Y182.441 E17.07011
G1 X145.316 Y182.243 E17.10953
G1 X144.576 Y181.969 E17.1489
G1 X144.004 Y181.688 E17.18069
G1 X143.801 Y181.801 E17.19228
G1 X143.076 Y182.113 E17.23166
G1 X142.323 Y182.35 E17.27105
G1 X141.549 Y182.509 E17.31047
G1 X140.764 Y182.59 E17.34984
G1 X140.362 Y182.6 E17.3699
G1 X139.362 Y182.6 E17.41979
G1 X138.573 Y182.56 E17.45921
G1 X137.793 Y182.441 E17.49857
G1 X137.028 Y182.243 E17.53799
G1 X136.288 Y181.969 E17.57736
G1 X135.716 Y181.688 E17.60916
G1 X135.514 Y181.801 E17.6207
G1 X134.789 Y182.113 E17.66008
G1 X134.036 Y182.35 E17.69947
G1 X133.262 Y182.509 E17.73889
G1 X132.477 Y182.59 E17.77826
G1 X132.075 Y182.6 E17.79832
G1 X131.075 Y182.6 E17.84821
G1 X130.286 Y182.56 E17.88762
G1 X129.506 Y182.441 E17.92699
G1 X128.741 Y182.243 E17.96641
G1 X128.001 Y181.969 E18.00578
G1 X127.429 Y181.688 E18.03758
G1 X127.226 Y181.801 E18.04917
G1 X126.501 Y182.113 E18.08854
G1 X125.748 Y182.35 E18.12793
G1 X124.974 Y182.509 E18.16735
G1 X124.189 Y182.59 E18.20672
G1 X123.787 Y182.6 E18.22678
G1 X122.787 Y182.6 E18.27667
G1 X121.998 Y182.56 E18.31609
G1 X121.218 Y182.441 E18.35545
G1 X120.453 Y182.243 E18.39488
G1 X119.713 Y181.969 E18.43424
G1 X119.141 Y181.688 E18.46604
G1 X118.939 Y181.801 E18.47759
G1 X118.214 Y182.113 E18.51696
G1 X117.461 Y182.35 E18.55635
G1 X116.687 Y182.509 E18.59577
G1 X115.902 Y182.59 E18.63514
G1 X115.5 Y182.6 E18.6552
G1 X114.5 Y182.6 E18.70509
G1 X113.711 Y182.56 E18.74451
G1 X112.931 Y182.441 E18.78387
G1 X112.166 Y182.243 E18.8233
G1 X111.426 Y181.969 E18.86266
G1 X110.717 Y181.621 E18.90207
G1 X110.695 Y181.607 E18.90337
G1 X110.278 Y181.966 E18.93082
G1 X109.63 Y182.417 E18.97021
G1 X108.939 Y182.801 E19.00965
G1 X108.214 Y183.113 E19.04903
G1 X107.461 Y183.35 E19.08841
G1 X106.687 Y183.509 E19.12783
G1 X105.902 Y183.59 E19.1672
G1 X105.5 Y183.6 E19.18727
G1 X38.2 Y183.6 E22.54488
G1 X37.411 Y183.56 E22.58429
G1 X36.631 Y183.441 E22.62365
G1 X35.866 Y183.243 E22.66308
G1 X35.126 Y182.969 E22.70245
G1 X34.417 Y182.621 E22.74185
G1 X33.746 Y182.203 E22.78129
G1 X33.122 Y181.72 E22.82066
G1 X32.549 Y181.177 E22.86004
G1 X32.034 Y180.578 E22.89945
G1 X31.583 Y179.93 E22.93884
G1 X31.199 Y179.239 E22.97828
G1 X30.887 Y178.514 E23.01766
G1 X30.65 Y177.761 E23.05704
G1 X30.491 Y176.987 E23.09646
G1 X30.41 Y176.202 E23.13584
G1 X30.4 Y175.8 E23.1559
G1 X30.4 Y44.2 E29.72145
G1 X30.44 Y43.411 E29.76086
G1 X30.559 Y42.631 E29.80023
G1 X30.757 Y41.866 E29.83965
G1 X31.031 Y41.126 E29.87902
G1 X31.379 Y40.417 E29.91842
G1 X31.797 Y39.746 E29.95786
G1 X32.28 Y39.122 E29.99723
G1 X32.823 Y38.549 E30.03662
G0 F3600 X33.216 Y38.73
G1 F1800 X33.811 Y38.242 E30.07501
G1 X34.453 Y37.819 E30.11336
G1 X35.136 Y37.464 E30.15177
G1 X35.851 Y37.183 E30.19009
G1 X36.593 Y36.977 E30.22851
G1 X37.351 Y36.849 E30.26687
G1 X38.2 Y36.8 E30.30929
G1 X105.5 Y36.8 E33.6669
G1 X106.268 Y36.84 E33.70527
G1 X107.028 Y36.959 E33.74365
G1 X107.771 Y37.157 E33.78201
G1 X108.49 Y37.431 E33.8204
G1 X109.176 Y37.778 E33.85875
G1 X109.823 Y38.194 E33.89713
G1 X109.998 Y38.334 E33.90831
G1 X110.111 Y38.242 E33.91558
G1 X110.753 Y37.819 E33.95394
G1 X111.436 Y37.464 E33.99234
G1 X112.151 Y37.183 E34.03067
G1 X112.893 Y36.977 E34.06908
G1 X113.651 Y36.849 E34.10744
G1 X114.5 Y36.8 E34.14986
G1 X181.8 Y36.8 E37.50747
G1 X182.568 Y36.84 E37.54584
G1 X183.328 Y36.959 E37.58422
G1 X184.071 Y37.157 E37.62258
G1 X184.79 Y37.431 E37.66097
G1 X185.476 Y37.778 E37.69932
G1 X186.123 Y38.194 E37.7377
G1 X186.723 Y38.675 E37.77607
G1 X187.27 Y39.216 E37.81445
G1 X187.758 Y39.811 E37.85284
G1 X188.181 Y40.453 E37.8912
G1 X188.536 Y41.136 E37.9296
G1 X188.817 Y41.851 E37.96793
G1 X189.023 Y42.593 E38.00635
G1 X189.151 Y43.351 E38.0447
G1 X189.2 Y44.2 E38.08713
G1 X189.2 Y174.8 E44.60279
G1 X189.16 Y175.568 E44.64115
G1 X189.041 Y176.328 E44.67953
G1 X188.843 Y177.071 E44.71789
G1 X188.569 Y177.79 E44.75628
G1 X188.222 Y178.476 E44.79464
G1 X187.806 Y179.123 E44.83301
G1 X187.325 Y179.723 E44.87138
G1 X186.784 Y180.27 E44.90976
G1 X186.189 Y180.758 E44.94815
G1 X185.547 Y181.181 E44.98651
G1 X184.864 Y181.536 E45.02491
G1 X184.149 Y181.817 E45.06324
G1 X183.407 Y182.023 E45.10166
G1 X182.649 Y182.151 E45.14001
G1 X181.8 Y182.2 E45.18244
G1 X180.8 Y182.2 E45.23233
G1 X180.032 Y182.16 E45.27069
G1 X179.272 Y182.041 E45.30907
G1 X178.529 Y181.843 E45.34743
G1 X177.81 Y181.569 E45.38582
G1 X177.152 Y181.236 E45.42261
G1 X176.576 Y181.536 E45.45502
G1 X175.861 Y181.817 E45.49334
G1 X175.119 Y182.023 E45.53176
G1 X174.361 Y182.151 E45.57011
G1 X173.512 Y182.2 E45.61254
G1 X172.512 Y182.2 E45.66243
G1 X171.744 Y182.16 E45.7008
G1 X170.984 Y182.041 E45.73918
G1 X170.241 Y181.843 E45.77754
G1 X169.522 Y181.569 E45.81593
G1 X168.865 Y181.237 E45.85265
G1 X168.289 Y181.536 E45.88503
G1 X167.574 Y181.817 E45.92336
G1 X166.832 Y182.023 E45.96178
G1 X166.074 Y182.151 E46.00013
G1 X165.225 Y182.2 E46.04256
G1 X164.225 Y182.2 E46.09245
G1 X163.457 Y182.16 E46.13081
G1 X162.697 Y182.041 E46.16919
G1 X161.954 Y181.843 E46.20755
G1 X161.235 Y181.569 E46.24594
G1 X160.578 Y181.237 E46.28267
G1 X160.002 Y181.536 E46.31504
G1 X159.287 Y181.817 E46.35337
G1 X158.545 Y182.023 E46.39179
G1 X157.787 Y182.151 E46.43014
G1 X156.938 Y182.2 E46.47257
G1 X155.938 Y182.2 E46.52246
G1 X155.17 Y182.16 E46.56083
G1 X154.41 Y182.041 E46.59921
G1 X153.667 Y181.843 E46.63757
G1 X152.948 Y181.569 E46.67596
G1 X152.29 Y181.236 E46.71275
G1 X151.714 Y181.536 E46.74515
G1 X150.999 Y181.817 E46.78348
G1 X150.257 Y182.023 E46.82189
G1 X149.499 Y182.151 E46.86025
G1 X148.65 Y182.2 E46.90267
G1 X147.65 Y182.2 E46.95256
G1 X146.882 Y182.16 E46.99093
G1 X146.122 Y182.041 E47.02931
G1 X145.379 Y181.843 E47.06767
G1 X144.66 Y181.569 E47.10606
G1 X144.002 Y181.236 E47.14285
G1 X143.426 Y181.536 E47.17525
G1 X142.711 Y181.817 E47.21358
G1 X141.969 Y182.023 E47.252
G1 X141.211 Y182.151 E47.29035
G1 X140.362 Y182.2 E47.33278
G1 X139.362 Y182.2 E47.38267
G1 X138.594 Y182.16 E47.42104
G1 X137.834 Y182.041 E47.45942
G1 X137.091 Y181.843 E47.49778
G1 X136.372 Y181.569 E47.53616
G1 X135.715 Y181.237 E47.57289
G1 X135.139 Y181.536 E47.60527
G1 X134.424 Y181.817 E47.6436
G1 X133.682 Y182.023 E47.68201
G1 X132.924 Y182.151 E47.72037
G1 X132.075 Y182.2 E47.76279
G1 X131.075 Y182.2 E47.81268
G1 X130.307 Y182.16 E47.85105
G1 X129.547 Y182.041 E47.88943
G1 X128.804 Y181.843 E47.92779
G1 X128.085 Y181.569 E47.96618
G1 X127.427 Y181.236 E48.00297
G1 X126.851 Y181.536 E48.03537
G1 X126.136 Y181.817 E48.0737
G1 X125.394 Y182.023 E48.11212
G1 X124.636 Y182.151 E48.15047
G1 X123.787 Y182.2 E48.1929
G1 X122.787 Y182.2 E48.24279
G1 X122.019 Y182.16 E48.28116
G1 X121.259 Y182.041 E48.31953
G1 X120.516 Y181.843 E48.3579
G1 X119.797 Y181.569 E48.39628
G1 X119.14 Y181.237 E48.43301
G1 X118.564 Y181.536 E48.46539
G1 X117.849 Y181.817 E48.50371
G1 X117.107 Y182.023 E48.54213
G1 X116.349 Y182.151 E48.58049
G1 X115.5 Y182.2 E48.62291
G1 X114.5 Y182.2 E48.6728
G1 X113.732 Y182.16 E48.71117
G1 X112.972 Y182.041 E48.74955
G1 X112.229 Y181.843 E48.78791
G1 X111.51 Y181.569 E48.8263
G1 X110.824 Y181.222 E48.86465
G1 X110.645 Y181.107 E48.87527
G1 X110.484 Y181.27 E48.8867
G1 X109.889 Y181.758 E48.92509
G1 X109.247 Y182.181 E48.96345
G1 X108.564 Y182.536 E49.00185
G1 X107.849 Y182.817 E49.04018
G1 X107.107 Y183.023 E49.07859
G1 X106.349 Y183.151 E49.11695
G1 X105.5 Y183.2 E49.15937
G1 X38.2 Y183.2 E52.51698
G1 X37.432 Y183.16 E52.55535
G1 X36.672 Y183.041 E52.59373
G1 X35.929 Y182.843 E52.63209
G1 X35.21 Y182.569 E52.67048
G1 X34.524 Y182.222 E52.70883
G1 X33.877 Y181.806 E52.74721
G1 X33.277 Y181.325 E52.78558
G1 X32.73 Y180.784 E52.82396
G1 X32.242 Y180.189 E52.86235
G1 X31.819 Y179.547 E52.90071
G1 X31.464 Y178.864 E52.93911
G1 X31.183 Y178.149 E52.97744
G1 X30.977 Y177.407 E53.01586
G1 X30.849 Y176.649 E53.05421
G1 X30.8 Y175.8 E53.09664
G1 X30.8 Y44.2 E59.66219
G1 X30.84 Y43.432 E59.70055
G1 X30.959 Y42.672 E59.73893
G1 X31.157 Y41.929 E59.77729
G1 X31.431 Y41.21 E59.81568
G1 X31.778 Y40.524 E59.85404
G1 X32.194 Y39.877 E59.89241
G1 X32.675 Y39.277 E59.93078
G1 X33.216 Y38.73 E59.96916
G0 F3600 X33.608 Y38.916
G1 F1800 X34.198 Y38.457 E60.00645
G1 X34.834 Y38.062 E60.0438
G1 X35.508 Y37.738 E60.08111
G1 X36.213 Y37.488 E60.11843
G1 X36.941 Y37.314 E60.15578
G1 X37.683 Y37.219 E60.1931
G1 X38.2 Y37.2 E60.21891
G1 X105.5 Y37.2 E63.57652
G1 X106.247 Y37.24 E63.61384
G1 X106.985 Y37.359 E63.65113
G1 X107.707 Y37.557 E63.68848
G1 X108.403 Y37.83 E63.72578
G1 X109.066 Y38.177 E63.76312
G1 X109.689 Y38.592 E63.80046
G1 X109.996 Y38.848 E63.82041
G1 X110.498 Y38.457 E63.85215
G1 X111.134 Y38.062 E63.8895
G1 X111.808 Y37.738 E63.92681
G1 X112.513 Y37.488 E63.96413
G1 X113.241 Y37.314 E64.00147
G1 X113.983 Y37.219 E64.0388
G1 X114.5 Y37.2 E64.06461
G1 X181.8 Y37.2 E67.42222
G1 X182.547 Y37.24 E67.45954
G1 X183.285 Y37.359 E67.49683
G1 X184.007 Y37.557 E67.53418
G1 X184.703 Y37.83 E67.57148
G1 X185.366 Y38.177 E67.60882
G1 X185.989 Y38.592 E67.64616
G1 X186.563 Y39.071 E67.68346
G1 X187.084 Y39.608 E67.72079
G1 X187.543 Y40.198 E67.75808
G1 X187.938 Y40.834 E67.79543
G1 X188.262 Y41.508 E67.83274
G1 X188.512 Y42.213 E67.87006
G1 X188.686 Y42.941 E67.90741
G1 X188.781 Y43.683 E67.94473
G1 X188.8 Y44.2 E67.97054
G1 X188.8 Y174.8 E74.4862
G1 X188.76 Y175.547 E74.52352
G1 X188.641 Y176.285 E74.56081
G1 X188.443 Y177.007 E74.59816
G1 X188.17 Y177.703 E74.63546
G1 X187.823 Y178.366 E74.6728
G1 X187.408 Y178.989 E74.71014
G1 X186.929 Y179.563 E74.74744
G1 X186.392 Y180.084 E74.78477
G1 X185.802 Y180.543 E74.82206
G1 X185.166 Y180.938 E74.85941
G1 X184.492 Y181.262 E74.89672
G1 X183.787 Y181.512 E74.93404
G1 X183.059 Y181.686 E74.97139
G1 X182.317 Y181.781 E75.00871
G1 X181.8 Y181.8 E75.03452
G1 X180.8 Y181.8 E75.08441
G1 X180.053 Y181.76 E75.12173
G1 X179.315 Y181.641 E75.15902
G1 X178.593 Y181.443 E75.19637
G1 X177.897 Y181.17 E75.23367
G1 X177.234 Y180.823 E75.27101
G1 X177.152 Y180.768 E75.27593
G1 X176.878 Y180.938 E75.29202
G1 X176.204 Y181.262 E75.32933
G1 X175.499 Y181.512 E75.36665
G1 X174.771 Y181.686 E75.40399
G1 X174.029 Y181.781 E75.44131
G1 X173.512 Y181.8 E75.46712
G1 X172.512 Y181.8 E75.51701
G1 X171.765 Y181.76 E75.55433
G1 X171.027 Y181.641 E75.59163
G1 X170.305 Y181.443 E75.62898
G1 X169.609 Y181.17 E75.66628
G1 X168.946 Y180.823 E75.70361
G1 X168.864 Y180.768 E75.70854
G1 X168.591 Y180.938 E75.72458
G1 X167.917 Y181.262 E75.76189
G1 X167.212 Y181.512 E75.79921
G1 X166.484 Y181.686 E75.83655
G1 X165.742 Y181.781 E75.87388
G1 X165.225 Y181.8 E75.89969
G1 X164.225 Y181.8 E75.94958
G1 X163.478 Y181.76 E75.9869
G1 X162.74 Y181.641 E76.02419
G1 X162.018 Y181.443 E76.06154
G1 X161.322 Y181.17 E76.09884
G1 X160.659 Y180.823 E76.13618
G1 X160.577 Y180.768 E76.1411
G1 X160.304 Y180.938 E76.15715
G1 X159.63 Y181.262 E76.19446
G1 X158.925 Y181.512 E76.23177
G1 X158.197 Y181.686 E76.26912
G1 X157.455 Y181.781 E76.30644
G1 X156.938 Y181.8 E76.33225
G1 X155.938 Y181.8 E76.38214
G1 X155.191 Y181.76 E76.41946
G1 X154.453 Y181.641 E76.45675
G1 X153.731 Y181.443 E76.49411
G1 X153.035 Y181.17 E76.5314
G1 X152.372 Y180.823 E76.56874
G1 X152.29 Y180.768 E76.57366
G1 X152.016 Y180.938 E76.58975
G1 X151.342 Y181.262 E76.62706
G1 X150.637 Y181.512 E76.66438
G1 X149.909 Y181.686 E76.70172
G1 X149.167 Y181.781 E76.73904
G1 X148.65 Y181.8 E76.76485
G1 X147.65 Y181.8 E76.81474
G1 X146.903 Y181.76 E76.85207
G1 X146.165 Y181.641 E76.88936
G1 X145.443 Y181.443 E76.92671
G1 X144.747 Y181.17 E76.96401
G1 X144.084 Y180.823 E77.00134
G1 X144.002 Y180.768 E77.00627
G1 X143.728 Y180.938 E77.02236
G1 X143.054 Y181.262 E77.05967
G1 X142.349 Y181.512 E77.09699
G1 X141.621 Y181.686 E77.13433
G1 X140.879 Y181.781 E77.17165
